.local/share/icons/Gruvbox-Plus-Dark/mimetypes/scalable/text-x-qml.svg

<svg width="256" height="256" viewBox="0 0 256 256" fill="none" xmlns="http://www.w3.org/2000/svg">
<g opacity="0.4" filter="url(#filter0_f)">
<path d="M55.0839 15.5636H155.608L216.009 75.7129L216.011 224.609C216.011 233.52 208.749 240.737 199.838 240.737H55.0838C46.1734 240.737 39 233.564 39 224.654V31.6474C39 22.737 46.1734 15.5636 55.0838 15.5636H55.0839Z" fill="#282828"/>
</g>
<path d="M55.0839 15H155.608L216.009 75.1493L216.011 224.045C216.011 232.956 208.749 240.174 199.838 240.174H55.0838C46.1734 240.174 39 233 39 224.09V31.0838C39 22.1734 46.1734 15 55.0838 15H55.0839Z" fill="#ebdbb2"/>
<path opacity="0.2" d="M55.0839 15H155.608L216.009 75.1493L216.011 224.045C216.011 232.956 208.749 240.174 199.838 240.174H55.0838C46.1734 240.174 39 233 39 224.09V31.0838C39 22.1734 46.1734 15 55.0838 15H55.0839Z" fill="url(#paint0_linear)"/>
<path fill-rule="evenodd" clip-rule="evenodd" d="M155.609 22.9787H55.0839C50.58 22.9787 46.9787 26.5799 46.9787 31.0838V224.09C46.9787 228.594 50.5799 232.195 55.0838 232.195H199.838C204.371 232.195 208.032 228.521 208.032 224.046V75.1493L155.609 22.9787ZM155.608 15H55.0839C46.1735 15 39 22.1734 39 31.0838V224.09C39 233 46.1734 240.174 55.0838 240.174H199.838C208.749 240.174 216.011 232.956 216.011 224.045L216.009 75.1493L155.608 15Z" fill="url(#paint1_linear)"/>
<path d="M104.191 167.968C108.759 167.968 112.624 167.266 116.255 166.212L121.994 174.644L133.706 166.914L128.318 158.95C136.751 150.517 140.265 137.868 140.265 125.57C140.265 105.308 130.661 83.1712 104.191 83.1712C77.7212 83.1712 68 105.308 68 125.57C68 145.832 77.7212 167.968 104.191 167.968ZM104.191 152.742C89.4335 152.742 84.3972 137.985 84.3972 125.57C84.3972 113.74 89.3164 98.3972 104.191 98.3972C118.949 98.3972 123.868 113.038 123.868 125.57C123.868 131.777 122.462 139.507 118.831 144.661L112.975 135.76L101.029 143.49L107.002 152.391C106.065 152.625 105.128 152.742 104.191 152.742Z" fill="url(#paint2_linear)"/>
<path d="M173.242 167.968C178.279 167.968 182.612 167.031 186.243 165.275L188 152.04C184.603 153.797 181.324 154.616 178.162 154.616C175.468 154.616 173.945 152.86 173.945 149.931V120.065H187.297V106.713H173.945V82L158.719 89.2616V106.713H150.169V120.065H158.719V152.157C158.719 162.112 162.936 167.968 173.242 167.968Z" fill="url(#paint3_linear)"/>
<path opacity="0.25" d="M155.608 17V61.2306C155.608 70.141 162.867 77.1605 171.777 77.1605L216.009 77.1493V75.1493L155.608 17Z" fill="#282828"/>
<path d="M155.608 15V59.2306C155.608 68.141 162.867 75.1605 171.777 75.1605L216.009 75.1493L155.608 15Z" fill="url(#paint4_linear)"/>
<defs>
<filter id="filter0_f" x="23.8778" y="0.441412" width="207.255" height="255.418" filterUnits="userSpaceOnUse" color-interpolation-filters="sRGB">
<feFlood flood-opacity="0" result="BackgroundImageFix"/>
<feBlend mode="normal" in="SourceGraphic" in2="BackgroundImageFix" result="shape"/>
<feGaussianBlur stdDeviation="7.5611" result="effect1_foregroundBlur"/>
</filter>
<linearGradient id="paint0_linear" x1="127.507" y1="15" x2="127.507" y2="240.178" gradientUnits="userSpaceOnUse">
<stop offset="1e-07" stop-color="#b8bb26"/>
<stop offset="1" stop-color="#98971a"/>
</linearGradient>
<linearGradient id="paint1_linear" x1="127.507" y1="15" x2="127.507" y2="240.178" gradientUnits="userSpaceOnUse">
<stop offset="1e-07" stop-color="#b8bb26"/>
<stop offset="1" stop-color="#98971a"/>
</linearGradient>
<linearGradient id="paint2_linear" x1="128.001" y1="82" x2="128.001" y2="174.646" gradientUnits="userSpaceOnUse">
<stop offset="1e-07" stop-color="#b8bb26"/>
<stop offset="1" stop-color="#98971a"/>
</linearGradient>
<linearGradient id="paint3_linear" x1="128.001" y1="82" x2="128.001" y2="174.646" gradientUnits="userSpaceOnUse">
<stop offset="1e-07" stop-color="#b8bb26"/>
<stop offset="1" stop-color="#98971a"/>
</linearGradient>
<linearGradient id="paint4_linear" x1="185.809" y1="15" x2="185.809" y2="75.1616" gradientUnits="userSpaceOnUse">
<stop offset="1e-07" stop-color="#b8bb26"/>
<stop offset="1" stop-color="#98971a"/>
</linearGradient>
</defs>
</svg>

<svg width="256" height="256" fill="none" version="1.1" viewBox="0 0 256 256" xmlns="http://www.w3.org/2000/svg">
  <path d="m55.08 15h100.5l60.4 60.15 2e-3 148.9c0 8.911-7.262 16.13-16.17 16.13h-144.8c-8.91 0-16.08-7.174-16.08-16.08v-193c0-8.91 7.173-16.08 16.08-16.08h1e-4z" fill="#ebdbb2"/>
  <path d="m55.08 15h100.5l60.4 60.15 2e-3 148.9c0 8.911-7.262 16.13-16.17 16.13h-144.8c-8.91 0-16.08-7.174-16.08-16.08v-193c0-8.91 7.173-16.08 16.08-16.08h1e-4z" fill="url(#paint0_linear)" opacity=".2"/>
  <path d="m155.6 22.98h-100.5c-4.504 0-8.105 3.601-8.105 8.105v193c0 4.504 3.601 8.105 8.105 8.105h144.8c4.533 0 8.194-3.674 8.194-8.149v-148.9l-52.42-52.17zm-1e-3 -7.979h-100.5c-8.91 0-16.08 7.173-16.08 16.08v193c0 8.91 7.173 16.08 16.08 16.08h144.8c8.911 0 16.17-7.218 16.17-16.13l-2e-3 -148.9-60.4-60.15z" clip-rule="evenodd" fill="url(#paint0_linear)" fill-rule="evenodd"/>
  <path d="m104.2 168c4.568 0 8.433-0.702 12.06-1.756l5.739 8.432 11.71-7.73-5.388-7.964c8.433-8.433 11.95-21.08 11.95-33.38 0-20.26-9.604-42.4-36.07-42.4-26.47 0-36.19 22.14-36.19 42.4s9.721 42.4 36.19 42.4zm0-15.23c-14.76 0-19.79-14.76-19.79-27.17 0-11.83 4.919-27.17 19.79-27.17 14.76 0 19.68 14.64 19.68 27.17 0 6.207-1.406 13.94-5.037 19.09l-5.856-8.901-11.95 7.73 5.973 8.901c-0.937 0.234-1.874 0.351-2.811 0.351z" fill="url(#paint2_linear)"/>
  <path d="m173.2 168c5.037 0 9.37-0.937 13-2.693l1.757-13.24c-3.397 1.757-6.676 2.576-9.838 2.576-2.694 0-4.217-1.756-4.217-4.685v-29.87h13.35v-13.35h-13.35v-24.71l-15.23 7.262v17.45h-8.55v13.35h8.55v32.09c0 9.955 4.217 15.81 14.52 15.81z" fill="url(#paint2_linear)"/>
  <path d="m155.6 17v44.23c0 8.91 7.259 15.93 16.17 15.93l44.23-0.0112v-2l-60.4-58.15z" fill="#282828" opacity=".25"/>
  <path d="m155.6 15v44.23c0 8.91 7.259 15.93 16.17 15.93l44.23-0.0112-60.4-60.15z" fill="url(#paint4_linear)"/>
  <defs>
    <linearGradient id="paint0_linear" x1="127.5" x2="127.5" y1="15" y2="240.2" gradientUnits="userSpaceOnUse">
      <stop stop-color="#b8bb26" offset="1e-7"/>
      <stop stop-color="#98971a" offset="1"/>
    </linearGradient>
    <linearGradient id="paint2_linear" x1="128" x2="128" y1="82" y2="174.6" gradientUnits="userSpaceOnUse">
      <stop stop-color="#b8bb26" offset="1e-7"/>
      <stop stop-color="#98971a" offset="1"/>
    </linearGradient>
    <linearGradient id="paint4_linear" x1="185.8" x2="185.8" y1="15" y2="75.16" gradientUnits="userSpaceOnUse">
      <stop stop-color="#b8bb26" offset="1e-7"/>
      <stop stop-color="#98971a" offset="1"/>
    </linearGradient>
  </defs>
</svg>
